src/pos-icons/human-male-height.svg

<svg height="24" viewBox="0 0 24 24" width="24" xmlns="http://www.w3.org/2000/svg"><path d="m7 2c1.78 0 2.67 2.16 1.42 3.42-1.26 1.25-3.42.36-3.42-1.42a2 2 0 0 1 2-2m-1.5 5h3a2 2 0 0 1 2 2v5.5h-1.5v7.5h-4v-7.5h-1.5v-5.5a2 2 0 0 1 2-2m15.5 1h-6v2h6m0 1h-3v2h3m0-11h-6v2h6m0 1h-3v2h3m0 7h-6v2h6m0 4h-6v2h6m0-5h-3v2h3"/></svg>

<?xml version="1.0" encoding="UTF-8"?><!DOCTYPE svg PUBLIC "-//W3C//DTD SVG 1.1//EN" "http://www.w3.org/Graphics/SVG/1.1/DTD/svg11.dtd"><svg xmlns="http://www.w3.org/2000/svg" xmlns:xlink="http://www.w3.org/1999/xlink" version="1.1" id="mdi-human-male-height" width="24" height="24" viewBox="0 0 24 24"><path d="M7,2C8.78,2 9.67,4.16 8.42,5.42C7.16,6.67 5,5.78 5,4A2,2 0 0,1 7,2M5.5,7H8.5A2,2 0 0,1 10.5,9V14.5H9V22H5V14.5H3.5V9A2,2 0 0,1 5.5,7M21,8H15V10H21M21,11H18V13H21M21,2H15V4H21M21,5H18V7H21M21,14H15V16H21M21,20H15V22H21M21,17H18V19H21" /></svg>
